X:062
T: Past One O'Clock
N: O'Farrell's Pocket Companion v.1 (Sky ed. p.45-46)
N: "Irish"
N: Another version of "Ban Chnuic Eireann O"
% Notated in 3 sharps but should be a "modal" tune (= 2 sharps, G's natural)
% Also note that I have changed m5 in Part 3 from E-F-G to E-F-A (G skip to initial C
% in next measure is unlikely)
M: 3/4
L: 1/8
R: waltz
Q: 80 % "slow"
K: Amix
AF|E2 F2 A2|A3B c2|B2 dcBA|F4 E2|
F2A2A2|c2e2f2|{ed}c4 Bc/B/|A4 :|
P:2
ef|g4 fe|f2 afec|e2f2 a>b|a2e2c2|
g2 agfe|f2a2a2|fedcBA|A2F2D2|
gfgbgb|fefafa|fedcBA|A2F2E2|
F2A2A2|c2e2f2|c4 B2|{AB}A4 :|
P:3
AB/c/|dcdfdf|cBcece|BcdcBA|F4 E>F|
E2F2A2|c>d e2f2|{ed}c4B2|{AB}A4 :|
P:4
ef|gfgage|f2 agec|(3efe f2 ab|a2e2c2|
gbagfe|fafecB|A>BcA BF|A2F2E2|
gfgbgb|fefafa|fedcBA|A2F2E>F|
E2F2A2|c2e2 (3fed|c4 BA/B/|A4 :|
